svgs/forest.svg

<svg xmlns="http://www.w3.org/2000/svg" viewBox="0 0 192 192"><path d="M16.5 102.82a361.352 361.352 0 0 1 159 0v48.285a8.675 8.675 0 0 1-1.151 4.319 8.624 8.624 0 0 1-3.146 3.161 8.566 8.566 0 0 1-4.298 1.158H25.095c-1.509 0-2.991-.4-4.298-1.158a8.624 8.624 0 0 1-3.146-3.161 8.675 8.675 0 0 1-1.151-4.319Zm79.5 8.551c0-23.883 0-42.325-19.982-51.006m18.951 26.864c1.59-10.452 5.371-13.562 14.997-16.93" fill="none" stroke="#000" stroke-width="8" stroke-linecap="round" stroke-linejoin="round"/><path d="M89.855 71.767c1.461-16.455-9.11-47.94-59.904-37.402 18.091 12.957 7.477 25.655 26.17 35.934a42.345 42.345 0 0 0 33.734 1.468Zm12.032 2.289c.86-12.741 8.595-23.883 35.926-20.256 16.458 2.203 18.048-7.73 18.048-7.73s-5.285 33.773-32.186 33.773c-20.327 0-21.788-5.787-21.788-5.787Z" fill="none" stroke="#000" stroke-width="8" stroke-linecap="round" stroke-linejoin="round"/></svg>

<svg
    xmlns="http://www.w3.org/2000/svg"
    viewBox="0 0 192 192"
    id="vector">
    <path
        id="path"
        d="M 16.5 102.82 C 68.847 91.015 123.153 91.015 175.5 102.82 L 175.5 151.105 C 175.5 152.621 175.103 154.111 174.349 155.424 C 173.594 156.737 172.509 157.827 171.203 158.585 C 169.896 159.343 168.414 159.743 166.905 159.743 L 25.095 159.743 C 23.586 159.743 22.104 159.343 20.797 158.585 C 19.491 157.827 18.406 156.737 17.651 155.424 C 16.897 154.111 16.5 152.621 16.5 151.105 Z M 96 111.371 C 96 87.488 96 69.046 76.018 60.365 M 94.969 87.229 C 96.559 76.777 100.34 73.667 109.966 70.299"
        fill="none"
        stroke="#000000"
        stroke-width="8"
        stroke-linecap="round"
        stroke-linejoin="round"/>
    <path
        id="path_1"
        d="M 89.855 71.767 C 91.316 55.312 80.745 23.827 29.951 34.365 C 48.042 47.322 37.428 60.02 56.121 70.299 C 61.346 72.844 67.035 74.288 72.837 74.54 C 78.638 74.793 84.43 73.849 89.855 71.767 Z M 101.887 74.056 C 102.747 61.315 110.482 50.173 137.813 53.8 C 154.271 56.003 155.861 46.07 155.861 46.07 C 155.861 46.07 150.576 79.843 123.675 79.843 C 103.348 79.843 101.887 74.056 101.887 74.056 Z"
        fill="none"
        stroke="#000000"
        stroke-width="8"
        stroke-linecap="round"
        stroke-linejoin="round"/>
</svg>
